X:1
T:The Old Fashioned Way
T:The Old Fashioned Way
T:Walter Stillman Martin
T:Civilla Durfee Martin, 1914
T:Public Domain Courtesy of the Cyber Hymnal™
T:Public Domain Courtesy of the Cyber Hymnal™
C:Walter Stillman Martin
Z:Public Domain
Z:Courtesy of the Cyber Hymnal™
%%score ( 1 2 ) ( 3 4 )
L:1/8
Q:1/4=130
M:3/4
K:G
V:1 treble 
V:2 treble 
V:3 bass 
V:4 bass 
V:1
 D2 | [DG]3 [DF] [DG]2 | [DA]2 [CD]2 [CD]2 | D2 [DF]2 [Fc]2 | [GB]4 ([GB][Gc]) | %5
w: 1.~They|call me old-|fa- shioned be-|cause I be-|lieve That~the *|
w: 2.~Old-|fa- shioned, be-|cause I be-|lieve and a-|ccept Only *|
w: 3.~Old-|fa- shioned, be-|cause I am|bound to do|right, To *|
w: 4.~Old-|fa- shioned, be-|cause I am|look- ing a-|bove To *|
 [Gd]2 [DG]2 [DG]2 | [^CG]2 [CF]2 [CG]2 | [DA]6- | [DA]4 D2 | [DG]3 [DF] [DG]2 | %10
w: Bi- ble is|God’s ho- ly|Word,|* That|Je- sus, who|
w: what has been|spok- en from|Heav’n;|* Old-|fa- shioned be-|
w: walk in the|straight nar- row|way;|* Be-|cause I have|
w: Je- sus, my|glor- i- fied|Lord;|* Be-|cause I be-|
 [DA]2 [CD]2 [CD]2 | D2 [DF]2 [Fc]2 | [GB]4 ([GB][Gc]) | [Gd]2 [DG]2 [EA]2 | B4 [FA]2 | [DG]6- | %16
w: lived a- mong|men long a-|go, Is~di- *|vine, and the|Christ of|God.|
w: cause at the|cross I was|saved, At~the *|cross had my|sins for-|giv’n.|
w: giv- en my|whole life to|God, Old- *|fa- shioned be-|cause I|pray.|
w: lieve He is|com- ing a-|gain, Ful- *|fill- ing His|ho- ly|Word.|
 [DG]4 ||"^Refrain" [Gd]2 | [Gd]3 [GB] [GB]2 | [GB]2 [FA]2 [GB]2 | [Fc]3 [FA] [FA]2 | %21
w: |||||
w: |||||
w: |||||
w: |||||
 [FA]2 [DG]2 [FA]2 | [GB]3 [DG] [DG]2 | [^CG]2 [CF]2 [CG]2 | [DA]6- | [DA]4 DD | %26
w: |||||
w: |||||
w: |||||
w: |||||
 [DG]2 [DF]2 [DG]2 | [DA]4 DD | D2 [DF]2 [Fc]2 | [GB]4 [GB][Gc] | [Gd]2 [DG]2 [EA]2 | %31
w: |||||
w: |||||
w: |||||
w: |||||
 [DB]2 [GB]2 [FA]2 | [DG]6- | [DG]4 |] %34
w: |||
w: |||
w: |||
w: |||
V:2
 D2 | x6 | x6 | D2 x4 | x6 | x6 | x6 | x6 | x4 D2 | x6 | x6 | D2 x4 | x6 | x6 | (D2 G2) x2 | x6 | %16
 x4 || x2 | x6 | x6 | x6 | x6 | x6 | x6 | x6 | x4 DD | x6 | x4 DD | D2 x4 | x6 | x6 | x6 | x6 | %33
 x4 |] %34
V:3
 [G,B,]2 | [G,B,]3 [G,A,] [G,B,]2 | [D,C]2 [D,F,]2 [D,F,]2 | [D,F,]2 [D,A,]2 [D,D]2 | %4
w: ~|~ ~ ~|~ ~ ~|~ ~ ~|
 [G,D]4 ([G,D][G,A,]) | [G,B,]2 [G,B,]2 [G,B,]2 | [A,,B,]2 [A,,A,]2 [A,,G,]2 | [D,F,]6- | %8
w: ~ ~ *|~ ~ ~|~ ~ ~|~|
 [D,F,]4 [D,C]2 | [G,B,]3 [G,A,] [G,B,]2 | [D,C]2 [D,F,]2 [D,F,]2 | [D,F,]2 [D,A,]2 [D,D]2 | %12
w: * ~|~ ~ ~|~ ~ ~|~ ~ ~|
 [G,D]4 ([G,D][G,A,]) | [G,B,]2 [B,,G,]2 [C,G,]2 | (G,2 D2) [D,C]2 | [G,B,]6- | [G,B,]4 || %17
w: ~ ~ *|~ ~ ~|~ * ~|~||
 [G,B,]2 | [G,B,]3 [G,D] [G,D]2 | [G,D]2 [CD]2 [B,D]2 | [A,D]3 [D,D] [D,D]2 | %21
w: My|sin was old-|fa- shioned, My|guilt was old-|
 [C,D]2 [B,,D]2 [D,D]2 | [G,D]3 [G,B,] [G,B,]2 | [A,,B,]2 [A,,A,]2 [A,,G,]2 | [D,F,]6- | %25
w: fa- shioned, God’s|love was old-|fa- shioned, I|know;|
 [D,F,]4 [D,C][D,C] | [G,B,]2 [G,A,]2 [G,B,]2 | [D,C]4 [D,F,][D,F,] | [D,F,]2 [D,A,]2 [D,D]2 | %29
w: * And the|way I was|saved was the|old- fa- shioned|
 [G,D]4 [G,D][G,A,] | [G,B,]2 [B,,G,]2 [C,G,]2 | [D,G,]2 [D,D]2 [D,C]2 | [G,B,]6- | [G,B,]4 |] %34
w: way, Through the|blood that makes|whit- er than|snow.||
V:4
 x2 | x6 | x6 | x6 | x6 | x6 | x6 | x6 | x6 | x6 | x6 | x6 | x6 | x6 | D,4 x2 | x6 | x4 || x2 | %18
 x6 | x6 | x6 | x6 | x6 | x6 | x6 | x6 | x6 | x6 | x6 | x6 | x6 | x6 | x6 | x4 |] %34

